X:1
T:God’s Way
T:God’s Way
T:Lida Shivers Leech
T:Lida Shivers Leech, 1911
T:Public Domain Courtesy of the Cyber Hymnal™
C:Lida Shivers Leech
Z:Public Domain
Z:Courtesy of the Cyber Hymnal™
%%score ( 1 2 ) ( 3 4 )
L:1/8
Q:1/4=100
M:6/8
K:Eb
V:1 treble 
V:2 treble 
V:3 bass 
V:4 bass 
V:1
"^Duet" G3"^Expressivoso" EFG | A3 G3 | F3 DG>F | E6 | G3 EFG | A3 G3 | F3 FFF | F6 | A3 AGF | %9
w: 1.~God’s way is the|best way,|Tho’ I may not|see|Why sor- rows and|tri- als|Oft ga- ther ’round|me;|He ev- er is|
w: 2.~God’s way is the|best way,|My path He hath|planned,|I’ll trust in Him|al- way|While hold- ing His|hand.|In sha- dow or|
w: 3.~God’s way shall be|my way,|He know- eth the|best.|And lean- ing up-|on Him,|Sweet, sweet is my|rest.|No harm can be-|
 G3 E3 | A3 AG^F | G6 | B3 BAG | A3 C3 | D3 D!fermata!G>F | E6 || %16
w: seek- ing|My gold to re-|fine,|So hum- bly I|trust Him,|My Sav- ior di-|vine.|
w: sun- shine|He ev- er is|near,|With Him for my|ref- uge,|I nev- er need|fear.|
w: fall me,|Safe, safe shall I|be,|I’ll cling to Him|ev- er,|So pre- cious is|He.|
"^Refrain" [GB]3 [GB]"^Animato"[EG][GB] | [Ac]3 [GB]3 | [FA]3 [FA][Ad][Ac] | [Ac]3 [GB]3 | %20
w: ||||
w: God’s way is the|best way,|God’s way is the|right way,|
w: ||||
 [Ge]3 [GB][EG]E | [Ad]3 [Ac]3 |"^riten." [GB]3 [DA][DG][B,F] | [B,E]6 |] %24
w: ||||
w: I’ll trust in Him|al- way,|He know- eth the|best.|
w: ||||
V:2
 x6 | x6 | x6 | x6 | x6 | x6 | x6 | x6 | x6 | x6 | x6 | x6 | x6 | x6 | x6 | x6 || x6 | x6 | x6 | %19
 x6 | x5 E | x6 | x6 | x6 |] %24
V:3
 B,3 G,A,B, | C3 B,3 | A,3 A,B,>A, | [E,G,]6 | B,3 G,A,B, | C3 B,3 | D3 CDE | [B,,D]6 | C3 CB,A, | %9
 B,3 G,3 | C3 CB,=A, | [E,B,]6 | _D3 DCB, | C3 A,3 | B,3 B,!fermata!B,>A, | [E,G,]6 || %16
!ff! [E,E]3 [E,E][E,B,][E,E] | [A,E]3 [E,E]3 | [B,D]3 [B,D][B,F][B,D] | [E,E]3 [E,E]3 | %20
 [E,B,]3 [E,E][E,B,][E,G,] | A,3 [A,E]3 | [B,E]3 [B,,B,][B,,B,][B,,A,] | [E,G,]6 |] %24
V:4
 E,6 | E,6 | B,,6 | x6 | E,6 | E,6 | F,6 | x6 | B,,6 | E,6 | B,,6 | x6 | E,6 | A,,6 | B,,6 | x6 || %16
 x6 | x6 | x6 | x6 | x6 | A,3 x3 | x6 | x6 |] %24

